images/icons/google-drive.svg

<svg width="24" height="24" viewBox="0 0 24 24" fill="none" xmlns="http://www.w3.org/2000/svg">
<g clip-path="url(#clip0_1436_823)">
<path d="M1.46433 19.6563L2.52275 21.4845C2.74268 21.8694 3.05883 22.1718 3.42997 22.3917L7.21003 15.8488H-0.350098C-0.350098 16.2749 -0.240132 16.701 -0.0202011 17.0859L1.46433 19.6563Z" fill="#0066DA"/>
<path d="M11.6499 8.15111L7.86982 1.60815C7.49869 1.82809 7.18254 2.13049 6.96261 2.51537L-0.0202011 14.6116C-0.236087 14.9882 -0.34981 15.4146 -0.350098 15.8487H7.21003L11.6499 8.15111Z" fill="#00AC47"/>
<path d="M19.8698 22.3917C20.241 22.1718 20.5571 21.8694 20.7771 21.4845L21.2169 20.7285L23.32 17.0859C23.5399 16.701 23.6499 16.2749 23.6499 15.8488H16.0892L17.698 19.0103L19.8698 22.3917Z" fill="#EA4335"/>
<path d="M11.6498 8.15117L15.4299 1.60822C15.0587 1.38829 14.6326 1.27832 14.1928 1.27832H9.10686C8.667 1.27832 8.24088 1.40203 7.86975 1.60822L11.6498 8.15117Z" fill="#00832D"/>
<path d="M16.0897 15.8488H7.21L3.42993 22.3917C3.80107 22.6116 4.22718 22.7216 4.66704 22.7216H18.6327C19.0725 22.7216 19.4986 22.5979 19.8698 22.3917L16.0897 15.8488Z" fill="#2684FC"/>
<path d="M19.8286 8.56348L16.3372 2.51537C16.1173 2.13049 15.8011 1.82809 15.43 1.60815L11.6499 8.15111L16.0898 15.8487H23.6361C23.6361 15.4226 23.5262 14.9965 23.3062 14.6116L19.8286 8.56348Z" fill="#FFBA00"/>
</g>
<defs>
<clipPath id="clip0_1436_823">
<rect width="24" height="24" fill="white"/>
</clipPath>
</defs>
</svg>

<svg width="24" height="24" fill="none" xmlns="http://www.w3.org/2000/svg">
   <path d="m1.464 19.656 1.059 1.829c.22.384.536.687.907.907l3.78-6.543H-.35c0 .426.11.852.33 1.237l1.484 2.57Z" fill="#0066DA" />
   <path d="M11.65 8.151 7.87 1.608c-.371.22-.687.522-.907.907L-.02 14.612a2.49 2.49 0 0 0-.33 1.237h7.56l4.44-7.698Z" fill="#00AC47" />
   <path d="M19.87 22.392c.371-.22.687-.523.907-.907l.44-.756 2.103-3.643c.22-.385.33-.811.33-1.237h-7.56l1.608 3.161 2.172 3.382Z" fill="#EA4335" />
   <path d="m11.65 8.151 3.78-6.543a2.417 2.417 0 0 0-1.237-.33H9.107c-.44 0-.866.124-1.237.33l3.78 6.543Z" fill="#00832D" />
   <path d="M16.09 15.849H7.21l-3.78 6.543c.371.22.797.33 1.237.33h13.966c.44 0 .866-.124 1.237-.33l-3.78-6.543Z" fill="#2684FC" />
   <path d="m19.829 8.563-3.492-6.048a2.496 2.496 0 0 0-.907-.907l-3.78 6.543 4.44 7.698h7.546c0-.426-.11-.853-.33-1.237L19.83 8.563Z" fill="#FFBA00" />
</svg>
